X: 59
T: String Quartet No. 14 in C\# Minor, Op. 131 mvt 4
C: Ludwig van Beethoven
%%abc-version 2.0
%%abcx-abcm2ps-target-version 5.9.1 (29 Sep 2008)
%%abc-creator hum2abc beta
%%abcx-conversion-date 2021/01/27 10:01:08
%%abc-edited-by Craig Stuart Sapp
%%abcx-initial-encoding-date 2004/09/09/
%%gracespace 0 6 6
%%humdrum-veritas 2120219956
%%humdrum-veritas-data 3301090066
%%linebreak <none>
%%barnumbers 0
L: 1/8
M: 2/4
N: Derived from quartet14-4.krn
Q: "Adagio ma non troppo e molto espressivo" 1/4=72
%%staves [1 2 3 4]
V: 1 clef=treble
V: 2 clef=treble
V: 3 clef=alto
V: 4 clef=bass
K: A
[V:1] zA2B/A/ [I:setbarnb 2]| 
[V:2] zC3 | 
[V:3] zE,3- | 
[V:4] z =A,, A,,A,, | 
[V:1] G zz2 | 
[V:2] DG2A/G/ | 
[V:3] E,4- | 
[V:4] z B,, B,,B,, | 
[V:1] zd2e/d/ | 
[V:2] dB,3 | 
[V:3] E,4- | 
[V:4] z G,, G,,G,, | 
[V:1] c zz2 | 
[V:2] A,c2d/c/ | 
[V:3] E,4- | 
[V:4] z A,, A,,A,, | 
[V:1] za2=g/^e/ | 
[V:2] a2z2 | 
[V:3] E,2A,2- | 
[V:4] z C,, C,,C,, | 
[V:1] ^efz2 | 
[V:2] zf2e/c/ | 
[V:3] A,F,3- | 
[V:4] z D,, ^A,,A,, | 
[V:1] z =e/d/ c z | 
[V:2] ^dB, CB/A/ | 
[V:3] F,G, A,^D, | 
[V:4] B,,E,, =A,,F,, | 
[V:1] z F/E/ ^D z | 
[V:2] Gz2=D/B,/ | 
[V:3] E, zz2 | 
[V:4] E,, zz2 | 
[V:1] z4 | 
[V:2] A,A,2B,/A,/ | 
[V:3] [E,4C4] | 
[V:4] z [A,,E,] [A,,E,][A,,E,] | 
[V:1] zG2A/G/ | 
[V:2] G, zz2 | 
[V:3] [E,4D4] | 
[V:4] z [B,,E,] [B,,E,][B,,E,] | 
[V:1] d zz2 | 
[V:2] zD2E/D/ | 
[V:3] [E,4B,4] | 
[V:4] z [G,,E,] [G,,E,][G,,E,] | 
[V:1] zc2d/c/ | 
[V:2] CC3- | 
[V:3] [E,4A,4]- | 
[V:4] z [A,,E,] [A,,E,][A,,E,] | 
[V:1] a zz2 | 
[V:2] CA2=G/^E/ | 
[V:3] [E,A,]E,A,2- | 
[V:4] z [C,,A,,] [C,,A,,][C,,A,,] | 
[V:1] zf2e/c/ | 
[V:2] ^EFz2 | 
[V:3] A,F,3- | 
[V:4] z D,, ^A,,A,, | 
[V:1] ^dB, CB/A/ | 
[V:2] z =e/d/ c z | 
[V:3] F,G, E,^D, | 
[V:4] B,,E,, =A,,F,, | 
[V:1] Gz2=D/B,/ | 
[V:2] z F/E/ ^D z | 
[V:3] E, zz2 | 
[V:4] E,, zz2 | 
[V:1] G,B2c/B/ | 
[V:2] zG,2A,/G,/ | 
[V:3] zE,3- | 
[V:4] z E,, E,,E,, | 
[V:1] B2cd | 
[V:2] G,2A,B, | 
[V:3] E,4- | 
[V:4] z D, C,G,, | 
[V:1] ce2f/e/ | 
[V:2] CC2D/C/ | 
[V:3] E,[A,3A3]- | 
[V:4] A,,A,, A,,A,, | 
[V:1] e2f=g | 
[V:2] C2DE | 
[V:3] [A,4A4]- | 
[V:4] z =G, F,C, | 
[V:1] f2g2 | 
[V:2] D3B, | 
[V:3] [A,A]FE2 | 
[V:4] D,D, B,,E, | 
[V:1] ga2f/d/ | 
[V:2] EA,3- | 
[V:3] C,E,2F, | 
[V:4] z C, C,,D,, | 
[V:1] .cd/B/ AB/G/ | 
[V:2] A,F/D/ CE- | 
[V:3] E,F, E,[E,/D/]B,/ | 
[V:4] E,,D,, E,,E,, | 
[V:1] AF/E/^D2 | 
[V:2] Ez2=D/B,/ | 
[V:3] [E,C]z2E,- | 
[V:4] A,,z2B,,/G,,/ | 
[V:1] z Ee2- | 
[V:2] G,B2c/B/ | 
[V:3] E,G,2A,/G,/ | 
[V:4] E,,E,, E,,E,, | 
[V:1] e4- | 
[V:2] B2cd | 
[V:3] G,2A,B, | 
[V:4] z D, C,G,, | 
[V:1] ee2f/e/ | 
[V:2] cA3- | 
[V:3] A,C2D/C/ | 
[V:4] A,,A, A,A, | 
[V:1] e2f=g | 
[V:2] A4 | 
[V:3] C2DE | 
[V:4] z =G, F,C, | 
[V:1] f2g2 | 
[V:2] AFE2- | 
[V:3] DD2B, | 
[V:4] D,D, B,,E, | 
[V:1] ga2f/d/ | 
[V:2] E2A,2- | 
[V:3] C,E,2F, | 
[V:4] z C, C,,D,, | 
[V:1] cd/B/ AB/G/ | 
[V:2] A,B,/D/ CE- | 
[V:3] E,F, E,[E,/D/][E,/B,/] | 
[V:4] E,,D,, E,,E,, | 
[V:1] AE3- | 
[V:2] E zz2 | 
[V:3] [E,C] z z C,- | 
[V:4] A,, z z A,,- | 
[V:1] E4- | 
[V:2] A,2B,7//A,// | 
[V:3] C,2D,7//C,// | 
[V:4] A,,2G,,7//A,,// | 
[V:1] E/f/e/^d/ =d/B/G/=F/ | 
[V:2] G,z2B,- | 
[V:3] D,z2D,- | 
[V:4] B,, zz2 | 
[V:1] E4- | 
[V:2] B,2C7//B,// | 
[V:3] D,2E,7//D,// | 
[V:4] G,,2F,,7//G,,// | 
[V:1] E/e/b/_b/ a/e/c/_B/ | 
[V:2] B,/A,/ zz2 | 
[V:3] D,/C,/ zz2 | 
[V:4] G,,/A,,/ zz2 | 
[V:1] A2a2 | 
[V:2] E2G7//^E// | 
[V:3] z4 | 
[V:4] C2E7//C// | 
[V:1] f2f'2- | 
[V:2] Ff =e7//c// | 
[V:3] d2c7//^A// | 
[V:4] D zz2 | 
[V:1] f'g' a'3/a/ | 
[V:2] ^de/>=d/ c^d | 
[V:3] B2=A3/B/ | 
[V:4] z2F2 | 
[V:1] a/g/^d/e/ e/>f/f3//g// | 
[V:2] ^d/e/A/G< Ge/ | 
[V:3] BF/B,/ B,E/D/ | 
[V:4] F/EE/ E/D/D/B,/ | 
[V:1] a2g- g3//-a// | 
[V:2] c2=d- =d3//c// & e4 | 
[V:3] C A B- B3//A// | 
[V:4] A,E3- | 
[V:1] b zz2 | 
[V:2] [Be] zz2 | 
[V:3] G zz2 | 
[V:4] E/F/ E/^D/ =D/B,/ G,/=F,/ | 
[V:1] b2c'7//b// | 
[V:2] [d4e4] | 
[V:3] G2F7//G// | 
[V:4] E, z z E- | 
[V:1] a zz2 | 
[V:2] [ce] zz2 | 
[V:3] A zz2 | 
[V:4] E/AG/ =G/E/ C/_B,/ | 
[V:1] e =g- g3/f//^e// | 
[V:2] z4 | 
[V:3] z4 | 
[V:4] A,/=G,/ E,/D,/ C,/A,/ E,/C,/ | 
[V:1] ^e/f/ zz2 | 
[V:2] F e- e3/^d//c// | 
[V:3] z/ D/ C/B,/ ^A,/F/ C/A,/ | 
[V:4] D, zz2 | 
[V:1] z4 | 
[V:2] c/^d/ c/=d/ B/c/ c/B//A// | 
[V:3] B,/F/ z G,/=A,/ A,/F/ | 
[V:4] z G,,/E,/ z F,,/^D,/ | 
[V:1] g/a/ a/g//f// f/e//^d// d/f//e// | 
[V:2] B/c/ c/B//A// A/G//F// F/^D//E// | 
[V:3] E,/E/ z E,/E/ A,/F,//G,// | 
[V:4] z E,,/E,/ z E,,/E,/ | 
[V:1] e'4- | 
[V:2] B,/>^A,/ A,/>B,/ B,/>C/ C3//=D// | 
[V:3] D,/>C,/ C,/>D,/ D,/>^A,/ A,3//B,// | 
[V:4] z2[K:clef=tenor]E E3//G,// | 
[V:1] e' b/>a/ a/g//f// f/^d//e// | 
[V:2] D z z =A3//B// | 
[V:3] B, G,/>=A,/ B, B, | 
[V:4] G,/>A,/ B,/>C/ D/>E/ F3//G// | 
[V:1] e/>^d/ d/>e/ e/>f/ f3//=g// | 
[V:2] C/>^B,/ B,/>C/ C/>D/ D3//E// | 
[V:3] A, A,/>=G,/ G,/>F,/ F,3//C,// | 
[V:4] A4- | 
[V:1] =g/>a/ b/>c'/ =d'/>e'/ f'3//=g'// | 
[V:2] E =G/F//E// E/D//C// C//c//d//e// | 
[V:3] C, z z E,/D,//C,// | 
[V:4] A/=G//F// E/D//C// C/B,//A,//[K:clef=bass] [C,/A,/]B,,//A,,// | 
[V:1] f'3f'/e'//d'// | 
[V:2] f f/e//d//d2- | 
[V:3] C,//C//D//E// F- F/>G/ G- | 
[V:4] A,,//A,//B,//C// D-[K:clef=tenor] D/>E/ E- | 
[V:1] d'3f'/e'//d'// | 
[V:2] d f/e//d// d d/c//B// | 
[V:3] G/>A/ A A,/>B,/ B, | 
[V:4] E/>F/ F[K:clef=bass] F,,/>G,,/ G,, | 
[V:1] d'/c'//e'// e'/f//d'// d'/e//c'// c'/e//e'// | 
[V:2] B/c/ c/F/ B/E/ A/G/ | 
[V:3] B,/E,/ F,/D/ E,/C/ C/B,/ | 
[V:4] G,,/A,,/ ^A,,/B,,/ G,,/=A,,/ E,,/E,/ | 
[V:1] e'/d'//c'// c'/b//a// {/a2b2} a/g//a// b- | 
[V:2] G/A/ e/d//c// c/B//A// G | 
[V:3] B,/C/ z e/d//c// d/c//d// | 
[V:4] E,,/A,,/ zz2 | 
[V:1] b/>^a/ a/>b/ b/>c'/ c'3//d'// | 
[V:2] d/>c/ c/>d/d2- | 
[V:3] G2-G/>^A/ A3//B// | 
[V:4] E2-E7//C,// | 
[V:1] d' z z ^d'3//e'// | 
[V:2] d/d'//c'// c'/b//a// a/g//f// f/e//d// | 
[V:3] B,/>C/ D/>E/ F/>G/ =A3//B// | 
[V:4] G,/>A,/ B,/>C/ D/>E/ F3//G// | 
[V:1] e'/>^d'/ d'/>e'/ e'/>f'/ f'3//=g'// | 
[V:2] c/>^B/ B/>c/ c/>d/ d3//e// | 
[V:3] z/ A,/[A,3A3]- | 
[V:4] A =G- G/>F/ F3//C// | 
[V:1] =g'//A//a//b// c'/=d'//e'// e'/f'//g'// g'/^g'//a'// | 
[V:2] e/c//d// e/f//=g// g/f//e// e/d//c// | 
[V:3] [A,/A/]=G,//F,// F,/E,//D,// D/C//B,// B,/A,//G,// | 
[V:4] C/E,//D,// D,/C,//B,,// B,,/A,,//=G,,// G,,/F,,//E,,// | 
[V:1] a'/>a/ a/>b/b2- | 
[V:2] f/e//d// d/e//d// d z | 
[V:3] F,/>A,/ D- D/E//D// F/E//D// | 
[V:4] D,,/>F,/ F,/>G,/G,,2 | 
[V:1] b/>c'/ c'- c'/>d'/ d'- | 
[V:2] z/ d//c// e/d//c// d z | 
[V:3] C z z/ A//G// B/A//G// | 
[V:4] G,/>A,/ A,, A,/>B,/ B,, | 
[V:1] d'//^d'//d'//e'// e'//f//c'//=d'// d'//e//b//c'// c'//e//^d'//e'// | 
[V:2] z/ A//e// e//c//c//B// d//B//B//A// A//B//A//B// | 
[V:3] A/F//E// ^A/A//F// G/G//E// E//B,//B,//G,// | 
[V:4] B,//^B,//B,//C// C//F//E//D// =B,//E//D//C// E,//G,//F,//E,// | 
[V:1] e'/=d'//c'// c'/b//a// a/f//^d// =d/B//e// | 
[V:2] c//A//G//A// zz2 | 
[V:3] E//C//D//=A,// zz2 | 
[V:4] A,,//C,//B,,//A,,// zz2 | 
[V:1] [M:C][M:4/4]A2z2z4 | 
[V:2] [M:C][M:4/4][CE]z[CE] z [CE]z[CE] z | 
[V:3] [M:C][M:4/4]A,zA, z A,zA, z | 
[V:4] [M:C][M:4/4]z8 | 
[V:1] z eag aec'a | 
[V:2] [CE]z[CE] z [CE]z[CE] z | 
[V:3] A,zA, z A,zA, z | 
[V:4] z8 | 
[V:1] d'2z2z4 | 
[V:2] [B,E]z[B,E] z [B,E]z[B,E] z | 
[V:3] G,zG, z G,zG, z | 
[V:4] z8 | 
[V:1] z8 | 
[V:2] [B,E]z[B,E] z [B,E]z[B,E] z | 
[V:3] G,zG, z G,zG, z | 
[V:4] z E,,B,,^A,, B,,E,,D,B,, | 
[V:1] z8 | 
[V:2] [A,E]z[A,E] z [A,E]z[A,E] z | 
[V:3] C,zC, z C,zC, z | 
[V:4] E,2z2z4 | 
[V:1] z aa'g' a'=g'e'=f' | 
[V:2] [A,E]z[A,E] z [A,E]z[A,A] z | 
[V:3] C,zC, z C,zC, z | 
[V:4] z2A z AzC,, z | 
[V:1] .f'ff'=f' ^f'e'c'e' | 
[V:2] [DF]zC z CzC z | 
[V:3] D,z^A, z A,zA, z | 
[V:4] z2F z FzF,, z | 
[V:1] .^d'be'=d' .c'bc'a | 
[V:2] B,z[EB] z [Ec] z ^d z | 
[V:3] =A,zG, z A,z[F,A,] z | 
[V:4] F,,zE,, z A,,zF,, z | 
[V:1] agaf fefg | 
[V:2] ezA z Bz=d z | 
[V:3] [E,B,]z[F,B,] z [G,B,]z[E,B,] z | 
[V:4] E,,zE z EzE z | 
[V:1] az[ce] z [ce]z[ce] z | 
[V:2] c2z2z EAG | 
[V:3] A,z[CE] z [CE]z[CE] z | 
[V:4] E zz2z4 | 
[V:1] [ce]z[ce] z [ce]z[ce] z | 
[V:2] A2z2z4 | 
[V:3] [CE]z[CE] z [CE]A,EC | 
[V:4] z E,,A,,G,, A,,E,,C,A,, | 
[V:1] [Ge]z[de] z [de]z[de] z | 
[V:2] z4z EB^A | 
[V:3] [E,B,]z[GB] z [GB]zG, z | 
[V:4] D,2z2z4 | 
[V:1] [de]z[de] z [de]z[Ge] z | 
[V:2] Bz[Ed] z [Ed]zE z | 
[V:3] G,zG, z G,E,B,G, | 
[V:4] z E,,B,,^A,, B,,E,,D,B,, | 
[V:1] [Ae]zc' z c'zc' z | 
[V:2] Eze z eAcA | 
[V:3] Czc z czA z | 
[V:4] E,=A,AG A=GE=F | 
[V:1] d'z^a z aza z | 
[V:2] dzc z czc z | 
[V:3] Az^A z z FAF | 
[V:4] .FF,F=F ^FECE | 
[V:1] bzb z c'zc' z | 
[V:2] BGBG edec | 
[V:3] FzG z =AzA z | 
[V:4] .^DB,E=D CB,CA, | 
[V:1] c'ze' z e'ze' z | 
[V:2] cBcA AGBe | 
[V:3] AzA z [EB]z[G,E] z | 
[V:4] A,G,A,F, F,E,B,,G,, | 
[V:1] e'ze' z e'ze' z | 
[V:2] gbge- eBGE | 
[V:3] [G,B,]z[G,B,] z [G,B,]z[G,B,] z | 
[V:4] F,,E,,G,,B,, D,E,G,B, | 
[V:1] e'EGB egbe'- | 
[V:2] B,G, (3CDB,z2(3cdB | 
[V:3] [G,E]zE, z [G,B,]z[G,B,] z | 
[V:4] CDB,G, E,D,B,,G,, | 
[V:1] e'=g'e'c' a=gec | 
[V:2] eE=GA ce=ga | 
[V:3] [C,A,]z[C,A,] z [C,A,]z[C,A,] z | 
[V:4] =G,,C,,E,,G,, A,,C,E,=G, | 
[V:1] =Gce=g c'e'=g'g' | 
[V:2] c'e' (3F=GEz2(3f=ge | 
[V:3] [E,A,]z[=G,A,] z [E,A,]z[E,A,] z | 
[V:4] A,=G,E,C, A,,=G,,E,,C,, | 
[V:1] f'Adc dfge | 
[V:2] fA,DC DFGE | 
[V:3] [D,D]A,DC DFGE | 
[V:4] D,,A,,D,C, D,F,G,E, | 
[V:1] a^abg ^bc'd'=b | 
[V:2] A^ABG ^Bcd=B | 
[V:3] A,^A,B,G, ^B,CD=B, | 
[V:4] A,,^A,,B,,G,, ^B,,C,D,=B,, | 
[V:1] ^d'e'f'=d' c'be'e | 
[V:2] ^def=d cBeE | 
[V:3] ^DEF=D CB,EE, | 
[V:4] ^D,E,F,=D, C,B,,E,E,, | 
[V:1] aAz2z4 | 
[V:2] AzeEz4 | 
[V:3] A, zz2EE,z2 | 
[V:4] A,, zz2z2E,E,, | 
[V:1] z d'bg edBG | 
[V:2] G,z[EB] z [GB]zE z | 
[V:3] z2(3CDB,z2(3CDB, | 
[V:4] F,,E,,G,,B,, D,E,G,B, | 
[V:1] FEGB egbe'- | 
[V:2] z2(3cdBz2(3cdB | 
[V:3] [E,B,]zE z [G,B,]z[E,B,] z | 
[V:4] CDB,G, E,D,B,,G,, | 
[V:1] e'=g'e'c' a=gec | 
[V:2] [Ae]z[=GA] z [EA]z[GA] z | 
[V:3] [E,2C2](3F,=G,E,z2(3F,G,E, | 
[V:4] =G,,C,,E,,G,, A,,C,E,=G, | 
[V:1] =Gce=g c'e'=g'g' | 
[V:2] [=GA] z (3f=gez2(3fge | 
[V:3] [CE]z[A,E] z [CE]z[A,E] z | 
[V:4] A,=G,E,C, A,,=G,,E,,C,, | 
[V:1] f'Adc dfge | 
[V:2] [Af]A,DC DFGE | 
[V:3] [D,D]A,DC DFGE | 
[V:4] D,,A,,D,C, D,F,G,E, | 
[V:1] a^abg ^bc'd'=b | 
[V:2] A^ABG ^Bcd=B | 
[V:3] A,^A,B,G, ^B,CD=B, | 
[V:4] A,,^A,,B,,G,, ^B,,C,D,=B,, | 
[V:1] ^d'e'f'=d' c'be'e | 
[V:2] ^def=d cBeE | 
[V:3] ^DEF=D CB,EE, | 
[V:4] ^D,E,F,=D, C,B,,E,E,, | 
[V:1] aAz2z4 | 
[V:2] AzeEz4 | 
[V:3] A, zz2CC,z2 | 
[V:4] A,, zz2z2A,A,, | 
[V:1] z8 | 
[V:2] z8 | 
[V:3] z8 | 
[V:4] z2[K:clef=tenor]A,>B, C>B,A,2 | 
[V:1] z8 | 
[V:2] z8 | 
[V:3] z2B,>C D>CB,2 | 
[V:4] G,2F,4z2 | 
[V:1] z8 | 
[V:2] z8 | 
[V:3] A,2G,4z2 | 
[V:4] z2D>E F>E E3/D/ | 
[V:1] z8 | 
[V:2] z8 | 
[V:3] z2E>F =G>F F3/E/ | 
[V:4] D>Cz2z2A3/=G/ | 
[V:1] z8 | 
[V:2] z8 | 
[V:3] E>Dz2z2B3/A/ | 
[V:4] =G>F E>A A>GE2 | 
[V:1] z8 | 
[V:2] z8 | 
[V:3] A>=G F>B B>^AF2 | 
[V:4] z4z2A3/F/ | 
[V:1] z8 | 
[V:2] z8 | 
[V:3] z2B>G F>E E3/D/ | 
[V:4] E>^D=D2-DCCB, | 
[V:1] z8 | 
[V:2] z8 | 
[V:3] DC2^D {/C2D2} .E.=D .B,.E | 
[V:4] B,A,.F,.B, E,F2G | 
[V:1] z2A>B c>BA2 | 
[V:2] z8 | 
[V:3] F8 | 
[V:4] A2z2z4 | 
[V:1] G2F4z2 | 
[V:2] z2B>c d>cB2 | 
[V:3] z8 | 
[V:4] D8 | 
[V:1] z2d>e f>e e3/d/ | 
[V:2] A2G4z2 | 
[V:3] E8 | 
[V:4] z8 | 
[V:1] d>cz2z2a3/=g/ | 
[V:2] z2e>f =g>f f3/e/ | 
[V:3] z8 | 
[V:4] A,8 | 
[V:1] =g>f e>a a>ge2 | 
[V:2] e>dz2z2b3/a/ | 
[V:3] A4C4 | 
[V:4] [K:clef=bass]z8 | 
[V:1] z4z2a3/f/ | 
[V:2] a>=g f>b b>^af2 | 
[V:3] z8 | 
[V:4] D4F,4 | 
[V:1] e>^d=d2-dccB- | 
[V:2] z2b>g f>e e3/d/ | 
[V:3] B4GAFG | 
[V:4] z4E4 | 
[V:1] BA.F.BE2z2 | 
[V:2] dc2^d {/c2d2}e2z2 | 
[V:3] G,A,2.A, G,A,.F,.B, | 
[V:4] E,4-E,C,,2^D,, | 
[V:1] z8 | 
[V:2] z8 | 
[V:3] E,2z2z4 | 
[V:4] {/C,,2^D,,2}.E,,2F,,2{/E,,2F,,2}.G,,2A,,2- | 
[V:1] z8 | 
[V:2] z8 | 
[V:3] .F,2G,2{/F,2G,2}.A,2B,2- | 
[V:4] A,,G,,.F,,.E,, .^D,,.=D,,z2 | 
[V:1] z8 | 
[V:2] z8 | 
[V:3] B,A,.G,.F, .=F,.E,z2 | 
[V:4] .A,,2B,,2{/A,,2B,,2}.C,2D,2- | 
[V:1] z8 | 
[V:2] z8 | 
[V:3] B,2C2{/B,2C2}.D2E2- | 
[V:4] D,C,.B,,.A,, .G,,.=G,,z2 | 
[V:1] z8 | 
[V:2] z8 | 
[V:3] ED.C.B, ._B,.A,z2 | 
[V:4] F,,2G,,2{/F,,2G,,2}.A,,2D2- | 
[V:1] z8 | 
[V:2] z8 | 
[V:3] G,2A,2{/G,2A,2}=B,2e2- | 
[V:4] DC.B,.A, .G,.D.C.B, | 
[V:1] z8 | 
[V:2] z8 | 
[V:3] ed.c.B .A.e.d.c | 
[V:4] .C2D2{/C2D2}E2=F2 | 
[V:1] z8 | 
[V:2] z8 | 
[V:3] .d2e2{/d2e2}.f2G2 | 
[V:4] {/E2=F2} ^FA2G AD,E,E, | 
[V:1] .E2F2{/E2F2}.G2A2- | 
[V:2] z8 | 
[V:3] {/F2G2} GB2A BE,F,2 | 
[V:4] E,2z2z4 | 
[V:1] AG.F.E .^D.=Dz2 | 
[V:2] .a2b2{/a2b2}.c'2d'2- | 
[V:3] {/E,2F,2} FE.^D.C F,F,2B, | 
[V:4] .F,,2G,,2{/F,,2G,,2}.A,,2B,,2- | 
[V:1] .A2B2{/G2B2}.c2d2- | 
[V:2] d'c'.b.a .g.=gz2 | 
[V:3] .C2=D2{/C2D2} .G,E2D | 
[V:4] B,,A,,.G,,.F,, .=F,,.E,,z2 | 
[V:1] dc.B.A .G.=Gz2 | 
[V:2] .D2E2{/D2E2}.B,2=G2- | 
[V:3] B,A,.G,.F, =F,E,2E, | 
[V:4] .B,,2C,2{/B,,2C,2}.D,2E,2- | 
[V:1] .F2G2{/F2G2}.A2d'2- | 
[V:2] GF.E.D .D.Cz2 | 
[V:3] .D,2E,2{/D,2E,2}.C2F2- | 
[V:4] E,D,.C,.B,, .B,,.A,,z2 | 
[V:1] d'c'.b.a .g.d'.c'.b | 
[V:2] .B2c2{/B2c2}.d2=g2- | 
[V:3] FE.D.C .B,.F.E.D | 
[V:4] .G,,2A,,2{/G,,2A,,2}.B,,2[K:clef=tenor]E2- | 
[V:1] .c'2d'2{/c'2d'2}.e'2f'2 | 
[V:2] gf.e.d .c.=g.f.e | 
[V:3] .A2B2{/A2B2}.c2d2 | 
[V:4] ED.C.B, .A,.E.D.C | 
[V:1] {/e'2f'2} f'a'2g' a'f'e'e' | 
[V:2] .f2g2{/f2g2} dab2 | 
[V:3] {/c2d2} Ac2B Ad2d | 
[V:4] .D2E2{/D2E2}.F2G2 | 
[V:1] [M:6/8]e'a/e/c/d/ e/f/g/a/b/c'/ | 
[V:2] [M:6/8]{/a2b2} b/d'c'/c'- c'/c/BA | 
[V:3] [M:6/8]de2-e/e/dc | 
[V:4] [M:6/8][K:clef=tenor]{/F,2G,2} G/BA/A AzA- | 
[V:1] d'zd' d' z z | 
[V:2] EzB B[Edb] z | 
[V:3] BzE E z z | 
[V:4] AGF Gz[K:clef=bass]E,, | 
[V:1] b>ge/f/ g/a/b/c'/d'/e'/ | 
[V:2] z E/G/B/A/ G/F/E/D/C/B,/ | 
[V:3] G>Bd/c/ B/A/G/F/E/E/ | 
[V:4] z6 | 
[V:1] c'zc' c' z z | 
[V:2] A,z[A,E] [A,E][Eca] z | 
[V:3] E/C/D/E/F/G/ A z z | 
[V:4] z2zz2A,, | 
[V:1] e'>c'a/b/ c'/d'/e'/f'/g'/a'/ | 
[V:2] z A/c/e/d/ c/B/A/G/F/E/ | 
[V:3] z C/A/c/B/ A/G/F/E/D/C/ | 
[V:4] [K:clef=tenor]z A/E/C/D/ E/F/G/A/A/A/ | 
[V:1] a'2z az^a | 
[V:2] Eze e[CE]e | 
[V:3] czc czc | 
[V:4] =GzG GzF | 
[V:1] ^azb gz=a | 
[V:2] ez^d =dzc | 
[V:3] czF Bz[CE] | 
[V:4] FF,B, E,EA, | 
[V:1] az=c Bze | 
[V:2] =czA GA,B, | 
[V:3] FzF, G,E,E, | 
[V:4] ^D[K:clef=bass]^D,^D,, E,,F,,G,, | 
[V:1] z c/e/a/g/ f/e/d/c/B/A/ | 
[V:2] C>EA/G/ F/E/D/C/B,/A,/ | 
[V:3] E,A,/E,/C,/D,/ E,/F,/G,/A,/B,/C/ | 
[V:4] A,,>E,,C,,/=D,,/ E,,/F,,/G,,/A,,/B,,/C,/ | 
[V:1] GzG Gz[Geb] | 
[V:2] G,z[B,E] [B,E] z z | 
[V:3] DzD D[EB] z | 
[V:4] D,zD, D, z z | 
[V:1] b>ge/f/ g/a/b/c'/d'/e'/ | 
[V:2] E/G/Bd/c/ B/A/G/F/E/D/ | 
[V:3] z E/G/B/A/ G/F/E/D/C/B,/ | 
[V:4] z E,/G,/B,/A,/ G,/F,/E,/D,/C,/B,,/ | 
[V:1] c'zc' c'z[Aee'] | 
[V:2] EzE Ez[ca] | 
[V:3] A,zA, A,[A,Ec] z | 
[V:4] A,,/C,/E,/D,/C,/B,,/ A,,/G,,/A,,/F,,/E,,/D,,/ | 
[V:1] z2z a>=ge/^e/ | 
[V:2] e>cG/A/z2z | 
[V:3] z2z z/ C,/E,/A,/ z | 
[V:4] D,,/C,,/E,,/A,,/ zz2z | 
[V:1] f z z f>=ec/e/ | 
[V:2] c>^A^E/F/z2z | 
[V:3] z2z z/ ^A,/C/F/ z | 
[V:4] B,,/^A,,/C,/F,/ zz2z | 
[V:1] ^d/zzB/ G/B/A/ z/ z | 
[V:2] F/d/B/d/cz2z | 
[V:3] z2z/ =F,/ G,/C/^F,/ z/ z | 
[V:4] =A,,/G,,/B,,/E,/A,,/zzF,/C,/^D,/ | 
[V:1] z2z2z/ e/B/c/ | 
[V:2] z2z2z/ C/G,/^A,/ | 
[V:3] z z/ C/G,/A,/ D/B,/G,/ z/ z | 
[V:4] B,/G,/E,/ z/ zz2z | 
[V:1] f2>-f2ed | 
[V:2] D2>-D2CB, | 
[V:3] z2zz2F,/G,/ | 
[V:4] E,,/F,,/G,,/A,,/B,,/C,/ D,/E,/F,/G,/A,/B,/ | 
[V:1] d2>-d2cB | 
[V:2] B,2>-B,2A,G,/=G,/ | 
[V:3] A,/B,/C/D/E/F/ G/A/B/c/d/e/ | 
[V:4] [K:clef=tenor]C/D/E/F/G/A/ B[K:clef=bass]E, z | 
[V:1] =g2>-g2fe | 
[V:2] E2>-E2DC | 
[V:3] F,/G,/^A,/B,/C/D/ E/F/G/^A/B/c/ | 
[V:4] F,,6 | 
[V:1] e2>-e2dc | 
[V:2] C2>-C2B,^A,/=A,/ | 
[V:3] F,3-F,>=G,G,/E/ | 
[V:4] [K:clef=tenor]F,/G,/^A,/B,/C/D/ E/=F/^F/=G/G/G/ | 
[V:1] c/a/=g/zf/ z/ g/f/ze/ | 
[V:2] A/c/c/zA/ z/ e/d/z^A/ | 
[V:3] E>CA,/D< DB,/G,/C/ | 
[V:4] =G>EC/F<[K:clef=bass] D,B,,/G,,/C,/ | 
[V:1] z/ d'/c'/zb/ z/ c'/b/za/ | 
[V:2] =g>ec/f< fd/B/e/- | 
[V:3] z2z d>BG/c/ | 
[V:4] E>C^A,/D/z2z | 
[V:1] z/ c'/=c'/c'/b/b/ a/a/a/a/g/g/ | 
[V:2] e/e/^d/=d/d/d/ c/c/=c/B/B/B/ | 
[V:3] c/A/F/G/B/^E/ F/A/^D/=E/F/E/ | 
[V:4] z6 | 
[V:1] a z z d/B/G/ z/ z | 
[V:2] cz/B/F/G/z2z | 
[V:3] A/F/^D/ z/ z =D/B,/G,/D/^A,/B,/ | 
[V:4] z2z z z/ F/C/D/ | 
[V:1] G,/A,/B,/C/D/E/ F/G/A/B/c/d/ | 
[V:2] z2z z/ G,/A,/B,/C/D/ | 
[V:3] D2>-D2CB, | 
[V:4] F2>-F2ED | 
[V:1] e/f/g/a/b/c'/ d'/^d'/d'/e'/e'/e'/ | 
[V:2] E/F/G/A/B/c/ d/^d/d/e/e/e/ | 
[V:3] B,2>-B,2A,G,/=G,/ | 
[V:4] D2>-D2CB, | 
[V:1] e'2>-e'2=d'c' | 
[V:2] =g2>-g2fe | 
[V:3] F,/G,/^A,/B,/C/D/ E/F/G/^A/B/c/ | 
[V:4] F,,6 | 
[V:1] c'2>-c'2b^a/=a/ | 
[V:2] e2>-e2dc | 
[V:3] F,3-F,>=G,G,/E/ | 
[V:4] F,/G,/^A,/B,/C/D/ E/F/F/=G/G/G/ | 
[V:1] =g>ec/f/ z/ g/f/ze/ | 
[V:2] =G/d/c/zF/ z/ e/d/z^A/ | 
[V:3] E>CA,/D< DB,/G,/C/ | 
[V:4] E,>C,=A,,/D,< FD/B,/E/ | 
[V:1] e>c^A/B< d'b/g/c'/ | 
[V:2] E>C^A,/D< dB/G/c/ | 
[V:3] z/ B,/^A,/zF,/ z/ =A,/G,/zE,/ | 
[V:4] z/ =G,,/F,,/zF,,/ z/ =F,,/E,,/zE,,/ | 
[V:1] c'/=a/f/g/b/^e/ f/a/^d/=e/f/e/ | 
[V:2] c/=A/F/G/B/^E/ F/A/^D/=E/F/E/ | 
[V:3] z/ C/=C/B,/B,/B,/ A,/A,/A,/G,/G,/G,/ | 
[V:4] z/ E,/^D,/=D,/D,/C,/ C,/=C,/B,,/B,,/B,,/B,,/ | 
[V:1] e'>c'a/b/ c'/=d'/e'/f'/g'/a'/ | 
[V:2] e>cA/B/ c/=d/e/f/g/a/ | 
[V:3] z/ D,/C,/z/[CE] [CE][A,Ec]C, | 
[V:4] z/ B,,/A,,/z/A, A,zA,, | 
[V:1] [M:2/4]a'e3 & z2z A | 
[V:2] [M:2/4]az2z | 
[V:3] [M:2/4]z4 | 
[V:4] [M:2/4]z4 | 
[V:1] e4 & AA3 | 
[V:2] zE3 & z2z B, | 
[V:3] z4 | 
[V:4] z4 | 
[V:1] e4 & G4 | 
[V:2] E4 & B,4 | 
[V:3] z4 | 
[V:4] zE,3 & z2z B,, | 
[V:1] ee3 & G z z A | 
[V:2] E4 & B,A,3 | 
[V:3] zC3 & z2z E, | 
[V:4] E,4 & B,,C,3 | 
[V:1] [Ae]a2f- | 
[V:2] E z z c & A, zz2 | 
[V:3] [E,C]E F^A | 
[V:4] [C,E,]C D z | 
[V:1] fd2B- | 
[V:2] d z z E- | 
[V:3] B=A, B,G, | 
[V:4] z F, G, z | 
[V:1] Bc2A- | 
[V:2] EE ^DD | 
[V:3] A,A, A,F, | 
[V:4] z A,, F,,B,, | 
[V:1] AG2B | 
[V:2] E2z E- | 
[V:3] E,B,2D & zE,3 | 
[V:4] E,,2z2 | 
[V:1] A zz2 | 
[V:2] [A,4E4-] | 
[V:3] C4 & E,4 | 
[V:4] zE,3 & z2z A,, | 
[V:1] z4 | 
[V:2] EE3 & B, z z B, | 
[V:3] B,4- & E,4 | 
[V:4] E,4 & A,,G,,3 | 
[V:1] z4 | 
[V:2] [B,3E3]G,- | 
[V:3] B,B3 & E, z z E | 
[V:4] E,4 & G,,3B,, | 
[V:1] ze3 | 
[V:2] G,[A,3E3]- | 
[V:3] zC3 & E z z E, | 
[V:4] E,4 & B,,C,3 | 
[V:1] [Ae]C D z | 
[V:2] [A,E] z z c | 
[V:3] C z z ^A & E, zz2 | 
[V:4] [C,E,][K:clef=tenor]A2F- | 
[V:1] z c' d' z | 
[V:2] df2d- | 
[V:3] BF2G | 
[V:4] FD2B,- | 
[V:1] zc'2^d' | 
[V:2] dc AA- | 
[V:3] EA, F,F,- | 
[V:4] B,C2B,- | 
[V:1] ^d'e'2z ]|:  
[V:2] AG2z ]|:  
[V:3] F,E,2B, ]|:  
[V:4] B,B,,3 ]|:  
[V:1] z2z b- | 
[V:2] zD3 & z2z G, | 
[V:3] B,4 & z2z E, | 
[V:4] [B,,4E,,4] | 
[V:1] bc' d'e' | 
[V:2] D4 & G,4 | 
[V:3] B,4 & E,4 | 
[V:4] [B,,4E,,4] | 
[V:1] c'e3 & z2z A | 
[V:2] C2z E | 
[V:3] A, zz2 & E, zz2 | 
[V:4] [A,,E,,] zz2 | 
[V:1] e4 & A4 | 
[V:2] E4 & EA,3 | 
[V:3] z=G,3 & z2z C, | 
[V:4] [K:clef=tenor]z2z E,- | 
[V:1] e4 & A4 | 
[V:2] E4 & A,4 | 
[V:3] =G,4 & C,4 | 
[V:4] E,F, =G,A, | 
[V:1] A2z b | 
[V:2] [A,F]F dB | 
[V:3] D,DB,2 | 
[V:4] F3G | 
[V:1] e z z e'- | 
[V:2] ca de | 
[V:3] z F, FG | 
[V:4] A3B | 
[V:1] e'f' e'b |[1 
[V:2] AA2G | 
[V:3] AD EE | 
[V:4] cd ce | 
[V:1] c' zz2 :|][2 
[V:2] A zz2 :|]  
[V:3] A, zz2 :|]  
[V:4] c[K:clef=bass]B,,3 :|]  
[V:1] c'd ce | 
[V:2] AG AB | 
[V:3] A,B, A,[E,B,] | 
[V:4] [K:clef=tenor]c[K:clef=bass]E,3 | 
[V:1] [M:9/4]z2.A2.A2.A2.B2.A2.A2.B2.A2 | 
[V:2] [M:9/4]z2.C2.C2.C2.D2.C2.C2.D2.C2 | 
[V:3] [M:9/4]z2.E,2.E,2.E,2.E,2.E,2.E,2.E,2.E,2 | 
[V:4] [M:9/4]z2.A,,2.A,,2.A,,2.G,,2.A,,2.A,,2.G,,2.A,,2 | 
[V:1] z2.d2.d2.d2.e2.d2.d2.e2.d2 | 
[V:2] z2.B,2.B,2.B,2.^A,2.B,2.B,2.A,2.B,2 | 
[V:3] z2.E,2.E,2.E,2.E,2.E,2.E,2.E,2.E,2 | 
[V:4] z2.G,,2.G,,2.G,,2.^^F,,2.G,,2.G,,2.F,,2.G,,2 | 
[V:1] z2.B2.B2.B2.!accent!c2.B2.B2.!accent!c2.B2 | 
[V:2] z2.[G,2G2].[G,2G2].[G,2G2].!accent![=G,2=G2].[^G,2^G2].[G,2G2].!accent![=G,2=G2].[^G,2^G2] | 
[V:3] z2.E,2.E,2.E,2.!accent![E,2^A,2].E,2.E,2.!accent![E,2A,2].E,2 | 
[V:4] z2.D,2.D,2.D,2.!accent!C,2.D,2.D,2.!accent!C,2.D,2 | 
[V:1] z2.e2.e2.e2.!accent!f2.e2.e2.!accent!f2.e2 | 
[V:2] z2.[A,2A2].[A,2A2].[A,2A2].!accent![A,2A2].[A,2A2].[A,2A2].!accent![A,2A2].[A,2A2] | 
[V:3] z2.E,2.E,2.E,2.!accent!^D,2.E,2.E,2.!accent!D,2.E,2 | 
[V:4] z2.C,2.C,2.C,2.!accent!^B,,2.C,2.C,2.!accent!B,,2.C,2 | 
[V:1] z2.e2.e2.e2.a2.a2.a2.a2.a2 | 
[V:2] z2.[=G2A2].[G2A2].[G2A2].[G2A2].[G2A2].[G2A2].[G2A2].[G2A2] | 
[V:3] z2.[=G,2A,2].[G,2A,2].[G,2A,2].[G,2A,2].[G,2A,2].[G,2A,2].[G,2A,2].[G,2A,2] | 
[V:4] z2.[=G,,2A,,2].[G,,2A,,2].[G,,2A,,2].[G,,2A,,2].[G,,2A,,2].[G,,2A,,2].[G,,2A,,2].[G,,2A,,2] | 
[V:1] a6-a4>a4g2f2 | 
[V:2] .A2.^d2.d2.d2.d2.d2.d2.d2.d2 | 
[V:3] z2.[F,2A,2].[F,2A,2].[F,2A,2].[F,2A,2].[F,2A,2].[F,2A,2].[F,2A,2].[F,2A,2] | 
[V:4] .[F,,2A,,2].[F,,2A,,2].[F,,2A,,2].[F,,2A,,2].[F,,2A,,2].[F,,2A,,2].[F,,2A,,2].[F,,2A,,2].[F,,2A,,2] | 
[V:1] f2e2d2{/d}c2B2c2e2d2c2 | 
[V:2] =d2c2B2E2G2A2c2B2A2 | 
[V:3] .[E,2B,2].[E,2B,2].[E,2B,2].[E,2C2].[E,2C2].[E,2C2][E,2C2]F,2F,2 | 
[V:4] .G,,2.G,,2.G,,2.A,,2.A,,2.A,,2.A,,2D,2^D,2 | 
[V:1] c2B2A2G2A2F2E2F2G2 | 
[V:2] A2G2F2B,2B,2^D2.=D2.D2.[D2E2] | 
[V:3] F,2G,2^D2E2F,2A,2G,2A,2[E,2B,2] | 
[V:4] .E,2.E,2.E,2.E,2.E,2.E,2E,2=D,2B,,2 | 
[V:1] A2.a2.a2.a2.b2.a2.a2.b2.a2 | 
[V:2] [C2E2].[E2e2].[E2e2].[E2e2].[E2e2].[E2e2].[E2e2].[E2e2].[E2e2] | 
[V:3] E,2.c2.c2.c2.=d2.c2.c2.d2.c2 | 
[V:4] A,,2z2F,,/E,,/F,,/E,,/A,,2z2z2z4z2 | 
[V:1] .a2.d'2.d'2.d'2.e'2.d'2.d'2.e'2.d'2 | 
[V:2] .[E2e2].[E2e2].[E2e2].[E2e2].[E2e2].[E2e2].[E2e2].[E2e2].[E2e2] | 
[V:3] .c2.G2.G2.G2.^^F2.G2.G2.F2.G2 | 
[V:4] z4F,,/E,,/F,,/E,,/B,,2z2z2z4z2 | 
[V:1] .c'2.b2.b2.b2.!accent!c'2.b2.b2.!accent!c'2.b2 | 
[V:2] .[E2e2].[E2e2].[E2e2].[E2e2].!accent![E2e2].[E2e2].[E2e2].!accent![E2e2].[E2e2] | 
[V:3] .[G2B2].[G2B2].[G2B2].[G2B2].!accent![G2B2].[G2B2].[G2B2].!accent![G2B2].[G2B2] | 
[V:4] z4F,,/E,,/F,,/E,,/D,2z2z2z4z2 | 
[V:1] .b2.e'2.e'2.e'2.f'2.e'2.e'2.f'2.e'2 | 
[V:2] .[E2e2].[E2e2].[E2e2].[E2e2].!accent![A2a2].[A2a2].[A2a2].!accent![A2a2].[A2a2] | 
[V:3] .[G2B2].[A2c2].[A2c2].[A2c2].!accent!^B2.c2.c2.!accent!B2.c2 | 
[V:4] z4F,,/E,,/F,,/E,,/C,2z2z2z4z2 | 
[V:1] .e'2.a'2.a'2.a'2.a'2.a'2.a'2.a'2.a'2 | 
[V:2] .[=G2A2].[G2A2].[G2A2].[G2A2].[G2A2].[G2A2].[G2A2].[G2A2].[G2A2] | 
[V:3] [K:clef=treble].c2.c2.c2.c2.c2.c2.c2.c2.c2 | 
[V:4] .[=G,,2A,,2].[G,,2A,,2].[G,,2A,,2].[G,,2A,,2].[G,,2A,,2].[G,,2A,,2].[G,,2A,,2].[G,,2A,,2].[G,,2A,,2] | 
[V:1] a'6-a'4>a'4g'2f'2 | 
[V:2] .[F2A2].[F2A2].[F2A2].[F2A2].[F2A2].[F2A2].[F2A2].[F2A2].[F2A2] | 
[V:3] .^d2.d2.d2.d2.d2.d2.d2.e2.d2 | 
[V:4] .[F,,2A,,2].[F,,2A,,2].[F,,2A,,2].[F,,2A,,2].[F,,2A,,2].[F,,2A,,2].[F,,2A,,2].[F,,2A,,2].[F,,2A,,2] | 
[V:1] f'2e'2d'2{/d'}c'2b2c'2e'2d'2c'2 | 
[V:2] .[E2B2].[E2e2].[E2e2].[E2e2].[E2e2].[E2e2][E2e2]d2c2 | 
[V:3] .=d2.c2.B2{/B}.A2.G2.A2c2[F2B2]A2 | 
[V:4] .G,,2.G,2.G,2.A,2.A,2.A,2A,2D2^D2 | 
[V:1] c'2b2a2g2a2f2e2^d2=d2 | 
[V:2] c2B2A2G2E2^D2B,2B,2B,2 | 
[V:3] [K:clef=alto]A2G2C2B,2C2A,2G,2A,2E,2 | 
[V:4] ^D2E2E2E2E,2E,2E,2F,2G,2 | 
[V:1] z8z8z2 | 
[V:2] z4z2z2.=D2.D2.D2.^A2.A2 | 
[V:3] z4z2z2.D,2.D,2.D,2.^A,2.A,2 | 
[V:4] z4F,,/E,,/F,,/E,,/.B,,2z2z2z4z2 | 
[V:1] z2.^a2.a2a2b2b2b2=a2g2 | 
[V:2] .^A2.d2.d2.d2.[E2B2].[E2B2].[E2B2].[E2c2].[E2d2] | 
[V:3] .^A,2.D2.D2D2G,2G,2G,2=A,2B,2 | 
[V:4] z4F,,/E,,/F,,/E,,/z4F,,/E,,/F,,/E,,/z4F,,/E,,/F,,/E,,/ | 
[V:1] b2a2=g2z4z2z4z2 | 
[V:2] .[E2B2].[E2c2].[E2e2]z2.=G2.G2.G2.c2.c2 | 
[V:3] G,2A,2[E,2A,2]z2.=G,2.G,2.G,2.C2.C2 | 
[V:4] z4D,,/C,,/D,,/C,,/.=G,,2z2z2z4z2 | 
[V:1] z2.=g2.g2.g2.c'2.c'2c'2d'2e'2 | 
[V:2] .c2.[C2=G2].[C2G2].[C2G2].e2.e2e2d2c2 | 
[V:3] .C2.[C,2=G,2].[C,2G,2].[C,2G,2].^A2.A2A2B2A2 | 
[V:4] z4D,,/C,,/D,,/C,,/.=G,,2.=G2.G2G2F2F2 | 
[V:1] e'2c'2d'2d'2f'2f'2f'2^e'2g'2 | 
[V:2] c2e2d2.d2.d2.A2A2B2B2 | 
[V:3] ^A2A2F2.F2.F2.F2F2G2^E2 | 
[V:4] F2F2B,2B,2B,2C2.C2.C2.C2 | 
[V:1] g'2f'2a'2.a'2.a'2.a'2a'2f'2^d'2 | 
[V:2] B2A2A2.A2.[F2A2].[F2A2].[F2A2].[F2A2].[F2A2] | 
[V:3] ^E2F2F2.F2.[F,2=A,2].[F,2A,2].[F,2A,2].[F,2A,2].[F,2A,2] | 
[V:4] .D2.D2.D2.D2.D,2.B,,2.B,,2.B,,2.B,,2 | 
[V:1] f'2=d'2b2d'2c'2e'2^d'2=d'2g2 | 
[V:2] .[F2A2].[F2A2].[F2A2]A2c2=c2=C2B,2D2 | 
[V:3] .[F,2A,2].[F,2A,2].[F,2A,2].A,2.A,2.A,2F,2G,2B,2 | 
[V:4] .D,2.D,2.D,2.E,2.E,2.E,2.E,2.E,2F,,/E,,/F,,/E,,/ | 
[V:1] b2a2a2g2a2f2e2^d2=d2 | 
[V:2] D2C2C2B,2C2A,2G,2A2B2 | 
[V:3] G,2A,2C,2C,2C,2^D,2E,2F,2G,2 | 
[V:4] E,,2A,,2A,,2A,,2A,,2B,,2B,,2B,,2E,2 | 
[V:1] z4z2z4f/e/f/e/.b2.^a2.a2 | 
[V:2] z4z2z2.D2.D2.D2.^A2.A2 | 
[V:3] z4z2z2.=D,2.D,2.D,2.^A,2.A,2 | 
[V:4] z4F,,/E,,/F,,/E,,/.B,,2z2z2z4F,,/E,,/F,,/E,,/ | 
[V:1] .^a2.d'2.d'2d'2c'2c'2c'2b2e'2 | 
[V:2] .^A2.d2.b2g2=a2a2c2d2B2 | 
[V:3] .^A,2.D2.B2B2=A2A2A2G2G2 | 
[V:4] z4F,,/E,,/F,,/E,,/z4F,,/E,,/F,,/E,,/z4F,,/E,,/F,,/E,,/ | 
[V:1] d'2c'2e'2z4d/c/d/c/.=g2.c'2.c'2 | 
[V:2] B2A2A2z2.=G2.G2.G2.c2.c2 | 
[V:3] G2E2[A,2E2]z2.=G,2.G,2.G,2.C2.C2 | 
[V:4] z4F,,/E,,/F,,/E,,/.=G,,2.G,,2.G,,2.G,,2.G,,2G,,/F,,/G,,/F,,/ | 
[V:1] c'2e'2e'2e'2d'2d'2d'2c'2e'2 | 
[V:2] .c2.c2.c2c2d2B2B2c2c2 | 
[V:3] C2^A,2A,2A,2B,2F,2F,2A,2A,2 | 
[V:4] z4=G,,/F,,/G,,/F,,/z4G,,/F,,/G,,/F,,/z4G,,/F,,/G,,/F,,/ | 
[V:1] e'2d'2f'2.f'2.f'2.f'2f'2^e'2g'2 | 
[V:2] c2d2d2.d2.d2.A2A2B2B2 | 
[V:3] ^A,2B,2B,2.B,2.B,2.C2C,2G,2^E,2 | 
[V:4] z4C,/B,,/C,/B,,/z4D,,/C,,/D,,/C,,/z4D,,/D,,/D,,/D,,/ | 
[V:1] g'2f'2a'2.a'2.a'2.a'2a'2f'2^d'2 | 
[V:2] B2[F2A2].[F2A2].[F2A2].[F2A2].[F2A2].[F2A2].[F2A2].[F2A2] | 
[V:3] =F,2[^F,2=A,2].[F,2A,2].[F,2A,2].[F,2A,2].[F,2A,2].[F,2A,2].[F,2A,2].[F,2A,2] | 
[V:4] z4E,,/D,,/E,,/D,,/z4C,/B,,/C,/B,,/z4B,,/B,,/B,,/B,,/ | 
[V:1] f'2=d'2b2d'2c'2e'2^d'2=d'2g2 | 
[V:2] .[F2A2].[F2A2].[F2A2][E2A2][E2A2]c2=c2B2D2 | 
[V:3] .[F,2A,2].[F,2A,2].[F,2A,2][E,2A,2][E,2A,2]E,2F,2G,2B,2 | 
[V:4] z4E,,/D,,/E,,/D,,/z4F,,/E,,/F,,/E,,/z4F,,/E,,/F,,/E,,/ | 
[V:1] b2a2=g2f2e2d2c2B2e2 | 
[V:2] D2C2E2F2=G,2A,2B,2D2C2 | 
[V:3] G,2A,2C,2D,2E,2F,2G,2G,2A,2 | 
[V:4] z4B,,/A,,/B,,/A,,/z4D,/A,,/D,/A,,/z4B,,/A,,/B,,/A,,/ | 
[V:1] e2A2=G2F2E2D2C2B,2E2 | 
[V:2] A,2B,2C2D2E2F2A,2G,2A,2 | 
[V:3] C,2D,2E,2F,2=G,2F,2E,2D,2C,2 | 
[V:4] z4B,,/A,,/B,,/A,,/z4D,/A,,/D,/A,,/z4B,,/A,,/B,,/A,,/ | 
[V:1] A6(3:2:6AGFE^DF(3AB^d (3:2:6fedagf(3c'ba | 
[V:2] A,2z2z2^D2z2z2z4z2 | 
[V:3] ^D,2z2z2A,2z2z2z4z2 | 
[V:4] F,,2z2z2F,2z2z2z4z2 | 
[V:1] a6(3abagabc'=d'2z2z2 | 
[V:2] =D4>-D4z2z2z2GABc | 
[V:3] B,4>-B,4z2z2z2EFGA | 
[V:4] E,4>-E,4z2z2z2DCB,A, | 
[V:1] z8z8z2 | 
[V:2] [E2d2]z2z2[E2d2]z2z2z4z2 | 
[V:3] B,6(3:2:6B,E,G,B,CD(3EFG (3:2:6ABcd^de(3fe=d | 
[V:4] G,2z2z2E,,2z2z2z4z2 | 
[V:1] z4z2z4z2z2cdef | 
[V:2] z4z2=G2GFEDC2ABcd | 
[V:3] d6(3dedcdefg2=GFED | 
[V:4] z4z2E,2E,D,C,B,,A,,2z2z2 | 
[V:1] [A2=g2]z2z2[e2g2]z2z2z4z2 | 
[V:2] e2z2z2A2z2z2z4z2 | 
[V:3] C2z2z2C,2z2z2z4z2 | 
[V:4] [K:clef=tenor]E6(3:2:6EA,B,CDE(3FGA (3:2:6Bcdedc(3BA=G | 
[V:1] c'2z2z2c'2z2z2z4z2 | 
[V:2] c6(3:2:6=cF^Acf^a(3c'ba (3:2:6=gf^ef=cd(3=ecf | 
[V:3] ^A,2z2z2[F,2C2]z2z2z4z2 | 
[V:4] F2z2z2[K:clef=bass]^A,,2z2z2z4z2 | 
[V:1] b6(3:2:6bagfe^d(3ef=d (3:2:6cdcedc(3edB | 
[V:2] ^d2z2z2[E2=d2]z2z2E2z2F2 | 
[V:3] F2z2z2B,2z2z2C2z2B,2 | 
[V:4] =A,2z2z2G,2z2z2A,2z2D,2 | 
[V:1] B6B6B6 | 
[V:2] z4z2z4z2z2e2g2 | 
[V:3] z4z2z2E2G2B2z2z2 | 
[V:4] z2E,2G,2B,2z2z2z4z2 | 
[V:1] B2c4c6c6 | 
[V:2] b2z2z2z4z2z2e2a2 | 
[V:3] z4z2z2E2A2c2z2z2 | 
[V:4] z2E,2A,2C2z2z2z4z2 | 
[V:1] c2=c4c6c4cB | 
[V:2] c'2=c'2z2z4z2z2e2a2 | 
[V:3] z4z2z2E2A2=c2z2z2 | 
[V:4] z2E,2A,2=C2z2z2z4z2 | 
[V:1] =c2c4c6c4cB | 
[V:2] =c'2z2z2z4z2z2=f2a2 | 
[V:3] z4z2z2=F2A2=c2z2z2 | 
[V:4] z2=F,2A,2=C2z2z2z4z2 | 
[V:1]  [K:C] [M:2/4]cc2=d/c/ | 
[V:2]  [K:C] [M:2/4]c'=E E z | 
[V:3]  [K:C] [M:2/4]=EC C z | 
[V:4]  [K:C] [M:2/4]G,G, G, z | 
[V:1] BB2c/B/ | 
[V:2] z F F z | 
[V:3] z D D z | 
[V:4] z G, G, z | 
[V:1] ff2g/f/ | 
[V:2] z D D z | 
[V:3] z B, B, z | 
[V:4] z G, G, z | 
[V:1] ee2f/e/ | 
[V:2] z E E z | 
[V:3] z C C z | 
[V:4] z G, G, z | 
[V:1] ee2f/e/ | 
[V:2] z G G z | 
[V:3] z E E z | 
[V:4] z C C z | 
[V:1] ee2f/e/ | 
[V:2] z ^G G z | 
[V:3] z D D z | 
[V:4] z B, B, z | 
[V:1] ee2f/e/ | 
[V:2] z A A z | 
[V:3] z C C z | 
[V:4] z A, A, z | 
[V:1] ee2f/e/ | 
[V:2] z B B z | 
[V:3] z B, B, z | 
[V:4] z ^G, G, z | 
[V:1] ee2f/e/ | 
[V:2] z4 | 
[V:3] z4 | 
[V:4] z4 | 
[V:1] ef/e/ e^f/e/ | 
[V:2] z4 | 
[V:3] z4 | 
[V:4] z4 | 
[V:1] (3:2:6e/^f/e/f/e/f/e2 | 
[V:2] z4 | 
[V:3] z4 | 
[V:4] z4 | 
[V:1] e>^d =d/Ee/ | 
[V:2] z4 | 
[V:3] z4 | 
[V:4] z4 | 
[V:1]  [K:A] {/^d2e2} c3/B//c// c'3/b//c'// | 
[V:2]  [K:A] [CA][C2A2]B/A/ | 
[V:3]  [K:A] [E,A,][E,2A,2][E,/B,/]A,/ | 
[V:4]  [K:A] A,,/8C,/8E,// z/ A,,/8C,/8E,// z/ A,,/8C,/8E,// z/ A,,/8C,/8E,// z/ | 
[V:1] E3/^D//E// =d3/=c//d// | 
[V:2] GG2A/G/ | 
[V:3] G,G,2A,/G,/ | 
[V:4] B,,/8D,/8E,// z/ B,,/8D,/8E,// z/ B,,/8D,/8E,// z/ B,,/8D,/8E,// z/ | 
[V:1] E3//^D/8E/8 B3//^A/8B/8 b3/^a//b// | 
[V:2] dd2e/d/ | 
[V:3] D[E,2D2]E/D/ | 
[V:4] G,,/8B,,/8E,// z/ G,,/8B,,/8E,// z/ G,,/8B,,/8E,// z/ G,,/8B,,/8E,// z/ | 
[V:1] E3/^D//E/< e/^d/8e/8 =a3//g/8a/8 | 
[V:2] c.[E2c2]d/c/ | 
[V:3] [E,C].[E,2C2]D/C/ | 
[V:4] A,,/8C,/8E,// z/ A,,/8C,/8E,// z/ A,,/8C,/8E,// z/ A,,/8C,/8E,// z/ | 
[V:1] E3/^D//E/< e/=d/8e/8 a3//g/8a/8 | 
[V:2] aa2=g/^e/ | 
[V:3] A[A,2A2][A,/=G/]^E/ | 
[V:4] C,,/8E,,/8A,,// z/ C,,/8E,,/8A,,// z/ C,,/8E,,/8A,,// z/ C,,/8E,,/8A,,// z/ | 
[V:1] D3//=C/8D/8 d3//c/8d/8 c3//B/8c/8 f3//e/8f/8 | 
[V:2] ^e f f =e/c/ | 
[V:3] ^E F F =E/C/ | 
[V:4] D,,/8F,,/8A,,// z/ D,,/8A,,/8D,// z/ F,,/8^A,,/8C,// z/ A,,/8C,/8F,// z/ | 
[V:1] f3//^e/8f/8 b3//a/8b/8 c'3//b/8c'/8 (3:2:6=e'//d'//=c'//e'//d'//b// | 
[V:2] ^d e/=d/ .c/E/ F/d/ | 
[V:3] ^D E/=D/ .C/E,/ F,/D/ | 
[V:4] =A,,/8B,,/8F,// z/ G,,/8B,,/8E,// z/ A,,/8C,/8E,// z/ D,,/8F,,/8B,,// z/ | 
[V:1] b4 | 
[V:2] B z z (3z/ e/g/ | 
[V:3] (3G,/E,/G,/ (3B,/ z/ z/ (3z/ E/G/ (3B/ z/ z/ | 
[V:4] E,, (3z/ E,,/G,,/ (3B,,/ z/ z/ z | 
[V:1] b/c'/c'3 | 
[V:2] (3b/ z/ z/ z z (3z/ e/a/ | 
[V:3] (3z/ E,/A,/ (3C/ z/ z/ (3z/ E/A/ (3c/ z/ z/ | 
[V:4] z (3z/ E,,/A,,/ =C, z | 
[V:1] c'/=c'/c'3 | 
[V:2] (3a/ z/ z/ z z (3z/ e/a/ | 
[V:3] (3z/ E,/A,/ =C (3z/ E/A/ c | 
[V:4] z (3z/ E,,/A,,/ =C, z | 
[V:1] =c'c'2c'//b// (3c'//d'//e'// | 
[V:2] a z z (3z/ =f/a/ | 
[V:3] (3z/ =F,/A,/ =C (3z/ =F/A/ =c | 
[V:4] z (3z/ =F,,/A,,/ =C, z | 
[V:1]  [K:F] =f'f2=g/=f/ | 
[V:2]  [K:F] [=ca]c c z | 
[V:3]  [K:F] AA A z | 
[V:4]  [K:F] =FF F z | 
[V:1] ee2f/e/ | 
[V:2] z c c z | 
[V:3] z B B z | 
[V:4] z G G z | 
[V:1] bb2c'/b/ | 
[V:2] z c c z | 
[V:3] z G G z | 
[V:4] z E E z | 
[V:1] aa2b/a/ | 
[V:2] z c c z | 
[V:3] z A A z | 
[V:4] z F F z | 
[V:1] aa2b/a/ | 
[V:2] z c c z | 
[V:3] z A A z | 
[V:4] z F F z | 
[V:1] aa2b/a/ | 
[V:2] z ^c c z | 
[V:3] z G G z | 
[V:4] z E E z | 
[V:1] aa2b/a/ | 
[V:2] z d d z | 
[V:3] z F F z | 
[V:4] z D D z | 
[V:1] aa2b/a/ | 
[V:2] z e e z | 
[V:3] z E E z | 
[V:4] z ^C C z | 
[V:1] aa2a- | 
[V:2] z f f^f | 
[V:3] z F F^F | 
[V:4] z D D^D | 
[V:1] aa2a- | 
[V:2] ^f2z2 | 
[V:3] ^F2z2 | 
[V:4] ^D2z2 | 
[V:1]  [K:A] a(3a/g/=b/ (3:2:6d'/=b/=g/e/d/=B/ | 
[V:2]  [K:A] d4- | 
[V:3]  [K:A] =B4- | 
[V:4]  [K:A] E4- | 
[V:1] (3:2:12G//E//D//B,//G,//A,// B,//C//D//E//F//=G// ^G/8A/8B/8c/8d/8e/8f/8=g/8 ^g/8a/8b/8c'/8d'/8e'/8f'/8g'/8 | 
[V:2] d [E/d/] z/ z [B,/E/] z/ | 
[V:3] B z [E,/D/] z/ E,/ z/ | 
[V:4] [K:clef=tenor]E z z[K:clef=bass] D,,/ z/ | 
[V:1] g'a'2f'/d'/ | 
[V:2] E2F2- & A,4 | 
[V:3] E,2F,2- | 
[V:4] C,,2D,,2- | 
[V:1] .c'd'/b/ .ab/g/ | 
[V:2] [^A,F]F EE | 
[V:3] F,B,/D/ .CD/B,/ | 
[V:4] D,,D,, E,,E,, | 
[V:1] ga2f/e/ | 
[V:2] =A,4 | 
[V:3] C,2D,2 | 
[V:4] E2F2 | 
[V:1] .cd/B/ .AB/G/ | 
[V:2] ^A,/A,/B,/F/ z/ E/B,/D/ | 
[V:3] D,D, E,E, | 
[V:4] FF/D/ .CD/B,/ | 
[V:1] z f/d/ .cd/B/ | 
[V:2] z D/B,/ .=A,B,/G,/ | 
[V:3] z2z G,/E/ | 
[V:4] z D, E,E, | 
[V:1] z4 | 
[V:2] z4 | 
[V:3] z4 | 
[V:4] z4 | 
[V:1] z d/B/ .AB/G/ | 
[V:2] z G,/B,/ .CB,/D/ | 
[V:3] z E,/G,/ .[E,A,]G,/B,/ | 
[V:4] z E,, E,,E,, | 
[V:1] z4 | 
[V:2] z4 | 
[V:3] z2E,2- | 
[V:4] z4 | 
[V:1] G4 | 
[V:2] B,4 | 
[V:3] E,D,2E, | 
[V:4] E,,4 | 
[V:1] A z e z | 
[V:2] CE/C/ z B/E/ | 
[V:3] C, z G, z | 
[V:4] A,, z E,, z | 
[V:1] c2d=f | 
[V:2] z e/A/ z d/=G/ | 
[V:3] =G,=G =FD | 
[V:4] A,,[K:clef=tenor]A2A | 
[V:1] z a a !fermata!z |]  
[V:2] z E e !fermata!z |]  
[V:3] z C c !fermata!z |]  
[V:4] z A A !fermata!z |]  


